dist/svg/u20E3.svg

<?xml version="1.0" encoding="UTF-8"?><svg id="a" xmlns="http://www.w3.org/2000/svg" viewBox="0 0 40 40"><g><rect x="8.1" y="8.1" width="23.8" height="23.8" rx="3.915" ry="3.915" fill="none"/><path d="M27.985,4.5H12.015c-4.151,0-7.515,3.365-7.515,7.515v15.97c0,4.151,3.365,7.515,7.515,7.515h15.97c4.151,0,7.515-3.365,7.515-7.515V12.015c0-4.151-3.365-7.515-7.515-7.515Zm3.915,23.485c0,2.159-1.756,3.915-3.915,3.915H12.015c-2.159,0-3.915-1.756-3.915-3.915V12.015c0-2.159,1.756-3.915,3.915-3.915h15.97c2.159,0,3.915,1.756,3.915,3.915v15.97Z" fill="#afb7c0"/></g><rect width="40" height="40" fill="none"/></svg>

<svg id="Layer_1" data-name="Layer 1" xmlns="http://www.w3.org/2000/svg" viewBox="0 0 40 40"><defs><style>.cls-1{fill:#afb7c0;}.cls-2{fill:none;}</style></defs><path class="cls-1" d="M27.985,8.1A3.919,3.919,0,0,1,31.9,12.015v15.97A3.919,3.919,0,0,1,27.985,31.9H12.015A3.919,3.919,0,0,1,8.1,27.985V12.015A3.919,3.919,0,0,1,12.015,8.1h15.97m0-3.6H12.015A7.516,7.516,0,0,0,4.5,12.015v15.97A7.516,7.516,0,0,0,12.015,35.5h15.97A7.516,7.516,0,0,0,35.5,27.985V12.015A7.516,7.516,0,0,0,27.985,4.5Z"/><rect class="cls-2" width="40" height="40"/></svg>
